public/illustrations/_explore.svg

<svg width="248" height="405" viewBox="0 0 248 405" fill="none" xmlns="http://www.w3.org/2000/svg">
<path d="M54.4943 267.067C49.822 262.395 45.1496 258.289 41.0436 253.758C24.9027 235.918 15.6996 212.981 14.9917 188.912C13.7174 156.205 25.1859 128.171 48.6893 105.376C69.2194 85.4125 94.1386 75.2183 122.881 75.3599C150.49 75.3599 174.135 85.554 193.957 104.81C211.655 122.083 221 143.18 223.69 167.532C228.504 211.282 205.142 254.749 165.781 275.279C146.242 285.757 123.872 289.579 101.926 286.323C99.2357 285.898 97.9614 286.748 96.8288 289.013C88.8999 304.729 80.6878 320.303 72.9006 336.02C67.945 346.072 63.2727 356.125 58.1756 366.177C53.928 374.672 49.2556 383.026 44.4417 391.096C42.4595 394.495 39.9109 397.609 36.796 400.158C34.389 402.14 31.5573 403.556 28.584 404.122C25.6107 404.689 22.3542 404.406 19.5225 403.273C14.2838 401.432 9.46977 398.459 5.64693 394.495C0.266635 388.831 -1.43237 382.177 1.25778 374.956C4.08951 367.31 6.92121 359.523 10.6025 352.16C18.1066 336.444 25.8938 320.728 33.9643 305.295C39.9109 293.685 46.5655 282.358 52.9369 270.89C53.5032 269.757 54.0696 268.341 54.7775 267.067H54.4943ZM214.487 177.16C214.487 175.32 214.487 174.187 214.204 172.913C212.93 149.551 204.435 128.738 187.869 112.455C160.826 85.8372 128.261 78.4747 92.298 90.0848C46.5656 104.81 17.3986 152.241 25.7522 200.805C34.8138 254.466 86.0681 288.305 138.88 275.279C167.905 268.2 189.285 250.643 203.302 224.308C210.948 209.866 214.77 193.584 214.487 177.16ZM62.5648 272.872C58.1756 280.518 53.5033 288.163 49.2557 295.951C37.3624 318.321 25.3275 340.55 15.2749 363.77C13.1511 368.726 11.5936 373.823 9.89453 378.92C9.32818 380.478 9.32818 382.177 9.89453 383.734C10.3193 385.291 11.1689 386.707 12.4432 387.84C13.859 389.256 15.2749 390.389 16.8323 391.521C24.1948 396.618 29.5751 395.627 34.9554 388.265C35.5217 387.557 35.9465 386.849 36.3712 385.999C42.0347 375.38 47.9814 364.761 53.5033 354.001C57.8925 345.506 61.5737 336.586 65.9629 327.949C71.6264 316.481 77.5729 305.012 83.5196 293.685C85.077 290.57 86.9177 287.456 88.4751 284.199L62.848 272.731L62.5648 272.872Z" fill="#102185"/>
<path d="M222.699 9.66392C221.283 18.4423 224.54 24.9552 231.336 29.9107C235.017 32.6008 238.415 35.291 243.088 36.1405C244.079 36.1405 245.07 36.7068 245.778 37.4148C246.486 38.1227 247.052 39.1138 247.194 40.1049C247.477 42.3703 246.344 43.9277 244.504 45.202C237.283 49.7327 231.902 56.1041 227.23 63.0418C224.398 67.0062 223.549 71.8202 222.699 76.4925C221.991 80.1737 221.566 83.855 221 87.5362C220.434 91.2174 218.452 93.1996 215.761 93.058C213.071 93.058 211.372 90.5095 211.089 87.1114C210.239 79.6074 209.39 72.1033 208.257 64.5993C206.983 56.812 201.461 53.2724 194.24 51.7149C192.541 51.4318 190.984 51.007 189.426 50.4407C188.577 50.0159 187.727 49.4496 187.161 48.6001C186.595 47.7505 186.311 46.901 186.17 45.9099C186.17 44.9188 186.311 43.9277 186.878 43.0782C187.302 42.2287 188.152 41.5208 189.002 41.096C190.559 40.2465 192.258 39.5386 193.957 38.9722C204.859 35.7157 210.523 28.2117 211.939 17.3096C212.363 13.6283 212.93 9.9471 213.496 6.26586C213.496 5.27476 213.921 4.28366 214.204 3.29256C214.487 2.15987 215.195 1.31035 216.045 0.744011C217.036 0.177667 218.027 -0.105505 219.16 0.0360809C220.292 0.177667 221.142 0.885597 221.85 1.73511C222.558 2.58463 222.841 3.71732 222.841 4.85V9.9471L222.699 9.66392ZM217.744 30.6186C216.469 33.7335 214.629 36.7068 212.222 39.1138C209.815 41.5208 206.983 43.503 203.868 44.7772C211.089 48.1753 215.337 52.9892 217.036 59.9269C222.133 53.8387 226.947 48.0337 231.619 42.3703L217.885 30.6186H217.744Z" fill="#102185"/>
<path d="M117.925 261.404C114.244 261.121 110.563 260.696 106.882 260.555C103.483 260.555 100.793 258.572 97.9617 257.44C92.723 255.174 87.6257 252.909 82.2454 251.068C76.1572 248.945 70.6354 245.547 65.9631 241.157C54.2114 230.114 45.8577 217.088 41.7517 201.513C35.9466 179.568 38.6368 158.471 49.8222 138.932C64.264 113.73 86.3515 99.4299 115.377 96.315C148.225 92.7754 180.931 111.323 195.373 141.056C215.762 183.39 196.789 235.636 151.765 254.608C141.004 259.139 129.535 261.404 117.925 261.263V261.404ZM110.846 174.895L109.997 175.886C110.704 177.019 111.554 178.01 112.403 179.143C113.819 180.7 115.518 182.258 117.076 183.815C119.058 185.939 119.624 188.063 118.633 190.045C117.501 192.169 115.377 193.018 112.403 192.593L108.297 191.886C112.12 200.805 118.633 205.195 126.845 207.318C134.066 209.159 141.57 209.584 149.074 208.593C150.49 208.309 152.048 208.593 153.322 209.159C154.596 209.867 155.729 210.858 156.295 212.274C156.72 213.123 157.145 213.831 157.57 214.681C160.685 221.194 163.658 227.565 167.056 234.644C181.356 222.326 190.134 207.318 193.249 189.054C195.94 174.046 193.533 158.613 186.736 144.879C186.029 145.445 185.745 145.587 185.604 145.87C179.799 157.055 170.454 162.719 158.136 163.285C156.154 163.285 155.587 164.418 154.879 165.975C151.481 173.904 144.261 176.877 136.19 173.479C132.509 171.78 128.969 169.657 125.571 167.391C123.447 165.975 121.465 163.993 118.633 163.852C118.633 164.559 118.35 165.126 118.633 165.409C119.766 167.391 121.04 169.373 122.315 171.214C124.014 173.904 123.872 176.594 122.031 178.293C120.191 179.992 117.642 179.851 115.094 177.868C113.819 176.736 112.403 175.886 111.129 175.037L110.846 174.895ZM113.394 137.375C112.403 139.216 111.979 140.207 111.412 141.198C109.289 145.445 106.032 148.985 102.068 151.534C98.1031 154.224 93.5725 155.781 88.9001 156.206C83.9446 156.772 83.9446 156.631 82.5287 161.445C82.3871 162.011 82.2455 162.719 81.9623 163.285C81.396 164.559 81.2544 165.834 81.396 167.25C81.5375 168.665 82.1039 169.798 82.8118 170.931C87.4842 178.576 88.4753 186.788 86.493 195.425C86.2099 196.983 85.6437 198.682 85.2189 200.522C94.9884 204.77 100.51 212.982 105.607 221.477C109.996 228.556 114.527 235.636 118.775 242.715C120.474 245.547 121.748 248.52 123.447 251.776C134.774 251.21 145.676 248.095 155.446 242.432C158.136 240.874 158.419 240.308 157.145 237.476C154.738 231.813 152.048 226.291 149.499 220.627C149.216 219.92 148.791 219.353 148.083 218.928C147.375 218.504 146.667 218.362 145.959 218.504C141.145 218.504 136.19 218.504 131.376 218.079C125.005 217.654 118.633 215.53 113.253 212.132C106.457 207.743 101.218 202.221 98.9527 194.151C98.3864 192.452 98.2449 190.753 98.6696 189.054C98.9528 187.355 99.8023 185.797 100.935 184.381C101.36 183.815 101.784 183.107 101.926 182.399C101.926 181.691 101.926 180.842 101.643 180.275C100.935 177.868 100.51 175.32 100.369 172.771C100.369 168.807 102.209 166.4 106.032 164.984L108.297 164.276C108.439 163.285 108.581 162.436 108.864 161.586C110.28 154.932 114.527 152.383 121.04 154.224C125.146 155.498 128.828 157.48 132.084 160.17C134.491 162.011 137.181 163.568 140.013 164.843C142.986 166.117 144.827 164.843 145.535 161.869C145.252 161.586 144.968 161.445 144.685 161.161C136.473 157.905 129.677 151.817 125.854 143.888C125.571 143.18 125.146 142.472 124.438 142.047C120.899 140.631 117.359 139.216 113.678 137.517L113.394 137.375ZM155.729 153.799C167.764 153.94 176.684 146.578 178.383 135.959C178.666 134.968 178.524 133.835 178.383 132.844C178.1 131.853 177.533 130.862 176.825 130.154C170.737 123.783 163.799 118.119 156.154 113.73C150.066 109.907 145.393 111.465 140.438 115.288C132.934 121.234 130.385 130.296 134.208 139.074C138.455 148.985 146.526 153.374 155.729 153.94V153.799ZM62.1402 221.76C71.2017 237.618 96.2626 251.493 112.12 250.644C112.12 250.219 112.12 249.936 111.837 249.511C105.324 239.175 99.0944 228.698 92.2982 218.504C90.1744 214.964 87.0594 212.132 83.3782 210.15C81.2544 209.017 79.8386 209.017 78.1396 211C75.0247 214.681 71.2018 217.513 66.8126 219.495C65.3968 220.344 63.8393 220.911 61.9986 221.619L62.1402 221.76ZM52.5123 203.92C53.5034 206.327 54.0698 208.168 54.7777 209.867C56.052 212.84 56.7599 213.123 59.7332 212.132C65.3967 210.292 70.2106 206.61 73.4671 201.513C76.7236 196.558 78.1395 190.611 77.5732 184.665C76.1573 172.063 65.6799 163.71 53.3618 165.551C51.3796 165.834 49.2559 166.117 49.2559 168.665C49.2559 172.063 46.5657 176.028 50.1053 179.001C53.7866 181.974 53.9282 184.948 50.8133 188.063C48.1231 190.611 48.4063 192.452 51.9459 193.443C53.5034 193.726 55.2025 193.726 56.7599 193.443C57.751 193.443 58.7421 192.735 59.7332 192.452C60.7243 192.169 61.8571 192.169 62.7066 192.593C63.6977 193.018 64.4056 193.726 64.9719 194.717C65.5383 195.567 65.6798 196.699 65.3967 197.691C65.1135 198.682 64.5471 199.673 63.6976 200.239C61.5738 201.513 59.1669 202.646 56.7599 203.354C55.3441 203.637 53.7866 203.779 52.2291 203.779L52.5123 203.92ZM105.324 125.765C105.183 123.358 104.475 120.951 103.483 118.827C102.351 116.703 100.935 114.721 99.0943 113.022C98.2448 112.173 97.2537 111.606 96.121 111.465C94.9883 111.323 93.8555 111.465 92.8644 112.031C85.0772 115.712 77.8562 120.526 71.6264 126.473C70.9185 127.181 70.3522 127.889 70.069 128.88C69.7859 129.729 69.6443 130.72 69.7859 131.711C70.3523 135.251 71.9096 138.649 74.3166 141.339C76.7236 144.029 79.9801 145.87 83.5198 146.578C94.7051 148.843 105.466 139.357 105.324 125.906V125.765ZM122.739 129.729C123.023 125.34 124.155 121.093 126.137 117.27C128.12 113.447 130.951 110.049 134.491 107.359C127.836 104.527 112.12 104.952 107.873 108.067C111.129 112.031 113.395 116.703 114.386 121.8C114.669 123.924 114.386 126.614 115.66 128.03C116.934 129.305 119.624 129.446 121.748 130.012C122.031 130.012 122.456 130.012 122.739 129.871V129.729ZM75.0246 154.082C72.1928 152.1 69.6443 149.834 67.2373 147.428C65.1135 144.737 63.1313 142.047 61.2907 139.216C57.6095 143.605 53.7866 151.392 53.3618 155.781C60.0164 155.356 66.671 156.772 72.6176 160.029L75.0246 154.082Z" fill="#102185"/>
<path d="M156.012 147.427C154.313 147.144 152.614 146.578 150.915 145.87C150.066 145.445 149.358 144.737 148.933 143.887C148.508 143.038 148.508 142.047 148.791 141.056C148.933 140.206 149.499 139.357 150.066 138.79C150.774 138.224 151.623 137.799 152.473 137.799C153.181 137.799 154.03 137.658 154.738 137.799C155.871 137.941 157.145 137.799 158.278 137.374C159.41 136.808 160.26 136.1 160.968 134.967C162.809 132.277 165.499 131.853 167.622 133.127C168.755 133.976 169.463 135.109 169.746 136.525C169.888 137.941 169.746 139.215 168.897 140.348C167.622 142.613 165.782 144.454 163.375 145.728C161.109 147.002 158.561 147.71 155.871 147.569L156.012 147.427Z" fill="#102185"/>
<path d="M159.835 121.8C160.402 121.8 161.11 121.8 161.676 122.225C162.242 122.508 162.809 122.791 163.233 123.357C163.658 123.782 164.083 124.348 164.224 124.915C164.508 125.481 164.508 126.189 164.508 126.755C164.508 128.03 163.941 129.162 163.092 130.012C162.242 130.861 161.109 131.286 159.835 131.428C158.561 131.428 157.287 130.861 156.437 129.87C155.588 128.879 155.021 127.746 155.163 126.472C155.163 125.906 155.163 125.198 155.446 124.632C155.729 124.065 156.012 123.499 156.437 123.074C156.862 122.649 157.428 122.366 157.994 122.083C158.561 121.8 159.127 121.8 159.835 121.8Z" fill="#102185"/>
<path d="M147.658 128.171C148.225 128.171 148.791 128.312 149.357 128.596C149.924 128.879 150.348 129.162 150.773 129.587C151.198 130.012 151.481 130.578 151.764 131.144C152.047 131.711 152.047 132.277 152.047 132.985C152.047 133.551 152.047 134.259 151.764 134.825C151.481 135.392 151.198 135.958 150.773 136.383C150.348 136.808 149.782 137.232 149.216 137.374C148.649 137.516 148.083 137.657 147.375 137.657C146.809 137.657 146.101 137.516 145.534 137.232C144.968 136.949 144.402 136.666 144.119 136.1C143.694 135.675 143.411 135.109 143.127 134.542C142.986 133.976 142.844 133.268 142.844 132.702C142.844 132.135 142.844 131.427 143.269 131.003C143.552 130.436 143.835 129.87 144.26 129.587C144.685 129.162 145.251 128.879 145.818 128.596C146.384 128.312 146.95 128.312 147.658 128.312V128.171Z" fill="#102185"/>
<path d="M67.3791 184.098C67.3791 185.231 66.8128 186.505 65.9633 187.213C65.1137 188.062 63.9811 188.487 62.7068 188.487C61.5741 188.487 60.4414 187.921 59.5919 187.071C58.7423 186.222 58.3176 185.089 58.3176 183.815C58.3176 182.541 59.0255 181.55 59.8751 180.7C60.7246 179.85 61.9988 179.567 63.1315 179.567C64.2642 179.567 65.3969 180.134 66.1048 180.983C66.8128 181.833 67.2375 182.965 67.2375 184.098H67.3791Z" fill="#102185"/>
<path d="M87.201 143.888C84.3693 143.888 82.2456 142.189 81.9624 139.782C81.6792 137.375 83.0951 135.534 86.0684 134.543C87.7675 133.977 89.3249 133.269 91.024 132.419C93.8557 131.003 96.1211 131.286 97.5369 133.269C99.0944 135.251 98.6695 137.941 96.4042 140.065C93.8556 142.33 90.7408 143.604 87.3428 143.746L87.201 143.888Z" fill="#102185"/>
<path d="M79.9798 134.259C78.7055 134.259 77.5729 133.693 76.7234 132.844C75.8738 131.994 75.3075 130.861 75.3075 129.587C75.3075 128.313 75.7321 127.18 76.5816 126.331C77.4312 125.481 78.5639 124.915 79.8382 124.915C81.1125 124.915 82.2452 125.481 83.0948 126.331C83.9443 127.18 84.3689 128.454 84.3689 129.587C84.3689 130.153 84.369 130.861 84.0858 131.428C83.9442 131.994 83.5195 132.56 83.0948 132.985C82.67 133.41 82.1037 133.835 81.6789 133.976C81.1126 134.259 80.5461 134.259 79.9798 134.259Z" fill="#102185"/>
<path d="M96.9705 123.357C96.9705 123.923 96.9706 124.49 96.6874 124.914C96.5459 125.481 96.2627 125.906 95.838 126.33C95.4132 126.755 94.9884 127.038 94.5636 127.321C94.1389 127.605 93.5726 127.605 93.0062 127.746C92.4399 127.746 91.8734 127.746 91.3071 127.605C90.7407 127.463 90.316 127.18 89.8912 126.755C89.4664 126.33 89.1833 125.906 88.9002 125.339C88.617 124.773 88.4753 124.206 88.4753 123.64C88.4753 123.074 88.4754 122.507 88.7586 121.941C89.0418 121.375 89.3249 120.95 89.7497 120.525C90.1744 120.1 90.5992 119.817 91.1655 119.534C91.7319 119.251 92.2981 119.251 92.8645 119.251C93.4308 119.251 93.9973 119.251 94.4221 119.534C94.8468 119.676 95.4131 120.1 95.6962 120.384C96.121 120.808 96.4043 121.233 96.5459 121.8C96.8291 122.366 96.829 122.791 96.829 123.357H96.9705Z" fill="#102185"/>
</svg>

<svg xmlns="http://www.w3.org/2000/svg" width="248" height="405" fill="none" viewBox="0 0 248 405"><path fill="#102185" d="M54.494 267.067c-4.672-4.672-9.344-8.778-13.45-13.309-16.141-17.84-25.344-40.777-26.052-64.846-1.275-32.707 10.194-60.741 33.697-83.536 20.53-19.964 45.45-30.158 74.192-30.016 27.609 0 51.254 10.194 71.076 29.45 17.698 17.273 27.043 38.37 29.733 62.722 4.814 43.75-18.548 87.217-57.909 107.747-19.539 10.478-41.909 14.3-63.855 11.044-2.69-.425-3.965.425-5.097 2.69-7.93 15.716-16.141 31.29-23.928 47.007-4.956 10.052-9.628 20.105-14.725 30.157-4.248 8.495-8.92 16.849-13.734 24.919-1.983 3.399-4.531 6.513-7.646 9.062-2.407 1.982-5.239 3.398-8.212 3.964-2.973.567-6.23.284-9.061-.849-5.24-1.841-10.053-4.814-13.876-8.778-5.38-5.664-7.08-12.318-4.39-19.539 2.833-7.646 5.664-15.433 9.346-22.796 7.504-15.716 15.29-31.432 23.361-46.865 5.947-11.61 12.602-22.937 18.973-34.405.566-1.133 1.133-2.549 1.84-3.823zm159.993-89.907c0-1.84 0-2.973-.283-4.247-1.274-23.362-9.769-44.175-26.335-60.458-27.043-26.618-59.608-33.98-95.571-22.37-45.732 14.725-74.9 62.156-66.546 110.72 9.062 53.661 60.316 87.5 113.128 74.474 29.025-7.079 50.405-24.636 64.422-50.971 7.646-14.442 11.468-30.724 11.185-47.148M62.565 272.872c-4.39 7.646-9.062 15.291-13.31 23.079-11.893 22.37-23.928 44.599-33.98 67.819-2.124 4.956-3.681 10.053-5.38 15.15a7.03 7.03 0 0 0 0 4.814 8.4 8.4 0 0 0 2.548 4.106c1.416 1.416 2.832 2.549 4.39 3.681 7.362 5.097 12.742 4.106 18.122-3.256.567-.708.992-1.416 1.416-2.266 5.664-10.619 11.61-21.238 17.132-31.998 4.39-8.495 8.07-17.415 12.46-26.052 5.663-11.468 11.61-22.937 17.557-34.264 1.557-3.115 3.398-6.229 4.955-9.486l-25.627-11.468zM222.699 9.664c-1.416 8.778 1.841 15.291 8.637 20.247 3.681 2.69 7.079 5.38 11.752 6.23.991 0 1.982.566 2.69 1.274s1.274 1.699 1.416 2.69c.283 2.265-.85 3.823-2.69 5.097-7.221 4.53-12.602 10.902-17.274 17.84-2.832 3.964-3.681 8.778-4.531 13.45-.708 3.682-1.133 7.363-1.699 11.044s-2.548 5.664-5.239 5.522c-2.69 0-4.389-2.549-4.672-5.947-.85-7.504-1.699-15.008-2.832-22.512-1.274-7.787-6.796-11.327-14.017-12.884a26.7 26.7 0 0 1-4.814-1.274c-.849-.425-1.699-.991-2.265-1.84s-.85-1.7-.991-2.691c0-.991.141-1.982.708-2.832.424-.85 1.274-1.557 2.124-1.982 1.557-.85 3.256-1.557 4.955-2.124 10.902-3.256 16.566-10.76 17.982-21.662.424-3.682.991-7.363 1.557-11.044 0-.991.425-1.982.708-2.973.283-1.133.991-1.983 1.841-2.549.991-.566 1.982-.85 3.115-.708 1.132.142 1.982.85 2.69 1.7.708.849.991 1.981.991 3.114v5.097zm-4.955 20.955c-1.275 3.114-3.115 6.088-5.522 8.495s-5.239 4.389-8.354 5.663c7.221 3.398 11.469 8.212 13.168 15.15a3127 3127 0 0 0 14.583-17.557L217.885 30.62z"/><path fill="#102185" d="M117.925 261.404c-3.681-.283-7.362-.708-11.043-.849-3.399 0-6.089-1.983-8.92-3.115-5.239-2.266-10.336-4.531-15.717-6.372-6.088-2.123-11.61-5.521-16.282-9.911-11.752-11.043-20.105-24.069-24.211-39.644-5.805-21.945-3.115-43.042 8.07-62.581 14.442-25.202 36.53-39.502 65.555-42.617 32.848-3.54 65.554 15.008 79.996 44.741 20.389 42.334 1.416 94.58-43.608 113.552-10.761 4.531-22.23 6.796-33.84 6.655zm-7.079-86.509-.849.991c.707 1.133 1.557 2.124 2.406 3.257 1.416 1.557 3.115 3.115 4.673 4.672 1.982 2.124 2.548 4.248 1.557 6.23-1.132 2.124-3.256 2.973-6.23 2.548l-4.106-.707c3.823 8.919 10.336 13.309 18.548 15.432 7.221 1.841 14.725 2.266 22.229 1.275 1.416-.284 2.974 0 4.248.566 1.274.708 2.407 1.699 2.973 3.115.425.849.85 1.557 1.275 2.407 3.115 6.513 6.088 12.884 9.486 19.963 14.3-12.318 23.078-27.326 26.193-45.59 2.691-15.008.284-30.441-6.513-44.175-.707.566-.991.708-1.132.991-5.805 11.185-15.15 16.849-27.468 17.415-1.982 0-2.549 1.133-3.257 2.69-3.398 7.929-10.618 10.902-18.689 7.504-3.681-1.699-7.221-3.822-10.619-6.088-2.124-1.416-4.106-3.398-6.938-3.539 0 .707-.283 1.274 0 1.557a81 81 0 0 0 3.682 5.805c1.699 2.69 1.557 5.38-.284 7.079s-4.389 1.558-6.937-.425c-1.275-1.132-2.691-1.982-3.965-2.831zm2.548-37.52c-.991 1.841-1.415 2.832-1.982 3.823-2.123 4.247-5.38 7.787-9.344 10.336-3.965 2.69-8.495 4.247-13.168 4.672-4.955.566-4.955.425-6.371 5.239-.142.566-.283 1.274-.567 1.84-.566 1.274-.708 2.549-.566 3.965.141 1.415.708 2.548 1.416 3.681 4.672 7.645 5.663 15.857 3.681 24.494-.283 1.558-.85 3.257-1.274 5.097 9.77 4.248 15.291 12.46 20.388 20.955 4.389 7.079 8.92 14.159 13.168 21.238 1.699 2.832 2.973 5.805 4.672 9.061 11.327-.566 22.229-3.681 31.999-9.344 2.69-1.558 2.973-2.124 1.699-4.956-2.407-5.663-5.097-11.185-7.646-16.849-.283-.707-.708-1.274-1.416-1.699q-1.062-.637-2.124-.424c-4.814 0-9.769 0-14.583-.425-6.371-.425-12.743-2.549-18.123-5.947-6.796-4.389-12.035-9.911-14.3-17.981-.567-1.699-.708-3.398-.283-5.097.283-1.699 1.132-3.257 2.265-4.673.425-.566.849-1.274.991-1.982 0-.708 0-1.557-.283-2.124a33.2 33.2 0 0 1-1.274-7.504c0-3.964 1.84-6.371 5.663-7.787l2.265-.708c.142-.991.284-1.84.567-2.69 1.416-6.654 5.663-9.203 12.176-7.362q6.16 1.911 11.044 5.946c2.407 1.841 5.097 3.398 7.929 4.673 2.973 1.274 4.814 0 5.522-2.974-.283-.283-.567-.424-.85-.708-8.212-3.256-15.008-9.344-18.831-17.273-.283-.708-.708-1.416-1.416-1.841-3.539-1.416-7.079-2.831-10.76-4.53zm42.335 16.424c12.035.141 20.955-7.221 22.654-17.84.283-.991.141-2.124 0-3.115-.283-.991-.85-1.982-1.558-2.69-6.088-6.371-13.026-12.035-20.671-16.424-6.088-3.823-10.761-2.265-15.716 1.558-7.504 5.946-10.053 15.008-6.23 23.786 4.247 9.911 12.318 14.3 21.521 14.866zM62.14 221.76c9.062 15.858 34.123 29.733 49.98 28.884 0-.425 0-.708-.283-1.133-6.513-10.336-12.743-20.813-19.539-31.007-2.124-3.54-5.239-6.372-8.92-8.354-2.124-1.133-3.54-1.133-5.238.85-3.115 3.681-6.938 6.513-11.327 8.495-1.416.849-2.974 1.416-4.814 2.124zm-9.628-17.84c.991 2.407 1.558 4.248 2.266 5.947 1.274 2.973 1.982 3.256 4.955 2.265a25.57 25.57 0 0 0 13.734-10.619c3.257-4.955 4.672-10.902 4.106-16.848-1.416-12.602-11.893-20.955-24.211-19.114-1.982.283-4.106.566-4.106 3.114 0 3.398-2.69 7.363.85 10.336 3.68 2.973 3.822 5.947.707 9.062-2.69 2.548-2.407 4.389 1.133 5.38 1.557.283 3.257.283 4.814 0 .991 0 1.982-.708 2.973-.991s2.124-.283 2.974.141c.99.425 1.699 1.133 2.265 2.124.566.85.708 1.982.425 2.974-.284.991-.85 1.982-1.7 2.548-2.123 1.274-4.53 2.407-6.937 3.115a23.5 23.5 0 0 1-4.53.425zm52.812-78.155c-.141-2.407-.849-4.814-1.841-6.938-1.132-2.124-2.548-4.106-4.389-5.805-.85-.849-1.84-1.416-2.973-1.557s-2.265 0-3.257.566c-7.787 3.681-15.008 8.495-21.238 14.442-.708.708-1.274 1.416-1.557 2.407-.283.849-.425 1.84-.283 2.831.566 3.54 2.124 6.938 4.53 9.628a16.8 16.8 0 0 0 9.204 5.239c11.185 2.265 21.946-7.221 21.804-20.672zm17.415 3.964c.284-4.389 1.416-8.636 3.398-12.459a29.5 29.5 0 0 1 8.354-9.911c-6.655-2.832-22.371-2.407-26.618.708 3.256 3.964 5.522 8.636 6.513 13.733.283 2.124 0 4.814 1.274 6.23 1.274 1.275 3.964 1.416 6.088 1.982.283 0 .708 0 .991-.141zm-47.714 24.353c-2.832-1.982-5.38-4.248-7.788-6.654-2.123-2.691-4.106-5.381-5.946-8.212-3.681 4.389-7.504 12.176-7.93 16.565 6.655-.425 13.31.991 19.257 4.248z"/><path fill="#102185" d="M156.012 147.427c-1.699-.283-3.398-.849-5.097-1.557a4.48 4.48 0 0 1-1.982-1.983c-.425-.849-.425-1.84-.142-2.831.142-.85.708-1.699 1.275-2.266.708-.566 1.557-.991 2.407-.991.708 0 1.557-.141 2.265 0 1.133.142 2.407 0 3.54-.425 1.132-.566 1.982-1.274 2.69-2.407 1.841-2.69 4.531-3.114 6.654-1.84q1.7 1.274 2.124 3.398c.142 1.416 0 2.69-.849 3.823a13.5 13.5 0 0 1-5.522 5.38c-2.266 1.274-4.814 1.982-7.504 1.841zM159.835 121.8c.567 0 1.275 0 1.841.425.566.283 1.133.566 1.557 1.132.425.425.85.991.991 1.558.284.566.284 1.274.284 1.84 0 1.275-.567 2.407-1.416 3.257-.85.849-1.983 1.274-3.257 1.416a4.53 4.53 0 0 1-3.398-1.558c-.849-.991-1.416-2.124-1.274-3.398 0-.566 0-1.274.283-1.84s.566-1.133.991-1.558.991-.708 1.557-.991c.567-.283 1.133-.283 1.841-.283M147.658 128.171q.85 0 1.699.425c.567.283.991.566 1.416.991s.708.991.991 1.557c.283.567.283 1.133.283 1.841 0 .566 0 1.274-.283 1.84s-.566 1.133-.991 1.558-.991.849-1.557.991c-.567.142-1.133.283-1.841.283a4.35 4.35 0 0 1-1.841-.425c-.566-.283-1.132-.566-1.415-1.132-.425-.425-.708-.991-.992-1.558-.141-.566-.283-1.274-.283-1.84s0-1.275.425-1.699c.283-.567.566-1.133.991-1.416.425-.425.991-.708 1.558-.991.566-.284 1.132-.284 1.84-.284zM67.38 184.098c0 1.133-.567 2.407-1.417 3.115-.85.849-1.982 1.274-3.256 1.274-1.133 0-2.266-.566-3.115-1.416-.85-.849-1.274-1.982-1.274-3.256s.708-2.265 1.557-3.115c.85-.85 2.124-1.133 3.257-1.133 1.132 0 2.265.567 2.973 1.416a4.95 4.95 0 0 1 1.132 3.115zM87.201 143.888c-2.832 0-4.955-1.699-5.239-4.106s1.133-4.248 4.106-5.239c1.7-.566 3.257-1.274 4.956-2.124 2.832-1.416 5.097-1.133 6.513.85 1.557 1.982 1.132 4.672-1.133 6.796-2.548 2.265-5.663 3.539-9.061 3.681zM79.98 134.259c-1.275 0-2.407-.566-3.257-1.415s-1.415-1.983-1.415-3.257.424-2.407 1.274-3.256c.85-.85 1.982-1.416 3.256-1.416 1.275 0 2.407.566 3.257 1.416.85.849 1.274 2.123 1.274 3.256 0 .566 0 1.274-.283 1.841-.142.566-.567 1.132-.991 1.557s-.991.85-1.416.991c-.566.283-1.133.283-1.7.283M96.97 123.357c0 .566 0 1.133-.283 1.557-.141.567-.424.992-.849 1.416-.425.425-.85.708-1.274.991s-.991.284-1.558.425c-.566 0-1.133 0-1.699-.141-.566-.142-.991-.425-1.416-.85s-.708-.849-.99-1.416q-.426-.85-.426-1.699c0-.566 0-1.133.284-1.699.283-.566.566-.991.99-1.416s.85-.708 1.416-.991c.567-.283 1.133-.283 1.7-.283.566 0 1.132 0 1.557.283.425.142.991.566 1.274.85.425.424.708.849.85 1.416.283.566.283.991.283 1.557z"/></svg>
